X: 28088
T: Mr. Barclay
R: strathspey
M: 4/4
K: Dmixolydian
A,|D/D/D D>E =F<G A>d|c>d c>A G<c E<C|D/D/D D>E =F<G A>d|c>A G<E D/D/D D>A,|
D/D/D D>E =F<G A>d|f<a g>e c>d e<g|a<f g>e f<d e>^c|e<^c g>e d/d/d dA|
d/d/dd2d>f a2|g<c g>e c<e g>e|d/d/d d>^c d>fa2|g<c g>e d2dA|
d/d/d d>^c d>fa2|g<c g>e c>d e<g|a<f g>e f<d e>c|A>G c<E D/D/D D||

